svg/fluentui-system-icons/ic_fluent_table_default_32_filled.svg

<svg xmlns="http://www.w3.org/2000/svg" width="32" height="32"><path d="M22 29h2.5a4.5 4.5 0 0 0 4.5-4.5V22h-7v7Zm0-9h7v-8h-7v8Zm-2-8v8h-8v-8h8Zm2-2h7V7.5A4.5 4.5 0 0 0 24.5 3H22v7Zm-2-7v7h-8V3h8Zm0 19v7h-8v-7h8Zm-10-2v-8H3v8h7Zm0-10V3H7.5A4.5 4.5 0 0 0 3 7.5V10h7Zm0 19v-7H3v2.5A4.5 4.5 0 0 0 7.5 29H10Z"/></svg>

<svg width="32" height="32" viewBox="0 0 32 32" fill="none" xmlns="http://www.w3.org/2000/svg">
<path d="M22 29H24.5C26.9853 29 29 26.9853 29 24.5V22H22V29ZM22 20H29V12H22V20ZM20 12V20H12V12H20ZM22 10H29V7.5C29 5.01472 26.9853 3 24.5 3H22V10ZM20 3V10H12V3H20ZM20 22V29H12V22H20ZM10 20V12H3V20H10ZM10 10V3H7.5C5.01472 3 3 5.01472 3 7.5V10H10ZM10 29V22H3V24.5C3 26.9853 5.01472 29 7.5 29H10Z" fill="#212121"/>
</svg>
